X:72
T:Dowd's favorite
P:(The maid at the churn in 3 parts)
R:Reel
S:Richard Darsie's web page
Z:Transcription, chords:Mike Long
M:C|
L:1/8
K:F
"Gm"DGGA BABF|"F"DF~F2 CFAF|"Gm"DFGA "(Eb)"BABd|"F"cAfA AGGF|\
"Gm"DGGA BABF|"F"DF~F2 CFAF|
"Gm"DFGA "(Eb)"BABd|"F"cAfA "(Gm)"AGGA|]\
"Bb"B2dB FBdB|"Bb"FBdB "F"cAFA|"Bb"B2dB FBdB|"F"cAFA "Gm"BGGA|
"Bb"B2dB FBdB|"Bb"FBdB "F"cAFA|"Gm"GBAc Bbag|"F"fdcA BGBd|]\
"Gm"gd~d2 gbag|"F"fc~c2 fgaf|
"Gm"gd~d2 "(Eb)"gbag|"F"fdcA BGBd|\
"Gm"~g2fa g2ag|"F"~f2eg fdcA|"Gm"GBAc "(Eb)"Bbag|"F"fdcA BG G2|]
